src/images/values/mountainMob.svg

<svg width="47" height="36" viewBox="0 0 47 36" fill="none" xmlns="http://www.w3.org/2000/svg">
<path d="M23.4991 1V10.7692M23.4991 1H29.9195C30.4818 1 30.7622 1.6789 30.3653 2.07584L29.3272 3.11387C29.0815 3.36117 29.0815 3.75969 29.3272 4.00542L30.3653 5.04345C30.7622 5.44039 30.4803 6.11929 29.9195 6.11929H23.4991V1ZM32.5028 23.5832L25.6682 12.0577C24.6916 10.4116 22.3083 10.4116 21.3333 12.0577L14.4987 23.5832L13.2117 21.4126C12.2351 19.7665 9.85192 19.7665 8.87689 21.4126L0.815186 35H25.8021M25.7327 35L33.7912 21.4126C34.7678 19.7666 37.151 19.7666 38.1261 21.4126L46.1846 35H25.7327Z" stroke="white" stroke-width="1.5" stroke-linecap="round" stroke-linejoin="round"/>
</svg>

<svg width="47" height="36" fill="none" xmlns="http://www.w3.org/2000/svg"><path d="M23.5 1v9.77m0-9.77h6.42a.63.63 0 0 1 .445 1.076l-1.038 1.038a.631.631 0 0 0 0 .891l1.038 1.038a.63.63 0 0 1-.445 1.076H23.5V1Zm9.003 22.583-6.835-11.525c-.976-1.646-3.36-1.646-4.335 0L14.5 23.583l-1.287-2.17c-.977-1.646-3.36-1.646-4.335 0L.815 35h24.987m-.07 0 8.06-13.587c.976-1.646 3.359-1.646 4.334 0L46.185 35H25.733Z" stroke="#fff" stroke-width="1.5" stroke-linecap="round" stroke-linejoin="round"/></svg>
